public/logos/postgres.svg

<svg width="256" height="256" viewBox="0 0 256 256" fill="none" xmlns="http://www.w3.org/2000/svg">
<path d="M221.5 146.809C220.364 143.366 217.388 140.968 213.54 140.393C211.725 140.122 209.647 140.237 207.188 140.744C202.902 141.629 199.721 141.966 197.401 142.032C206.161 127.231 213.284 110.352 217.384 94.4641C224.015 68.7732 220.472 57.0695 216.331 51.7756C205.373 37.7634 189.386 30.2359 170.099 30.0056C159.81 29.8797 150.777 31.9126 146.065 33.3746C141.678 32.5999 136.961 32.1674 132.012 32.0874C122.734 31.9393 114.536 33.9634 107.531 38.1233C103.654 36.811 97.4297 34.961 90.2423 33.7804C73.338 31.0032 59.7136 33.1672 49.748 40.2126C37.6807 48.7429 32.0866 63.5638 33.1212 84.2637C33.4498 90.8358 37.1234 110.832 42.9077 129.796C46.232 140.696 49.7768 149.748 53.4438 156.702C58.6442 166.563 64.2086 172.37 70.4554 174.456C73.9566 175.623 80.3182 176.441 87.009 170.864C87.8571 171.892 88.9886 172.913 90.4902 173.862C92.3973 175.066 94.7292 176.049 97.0582 176.632C105.451 178.731 113.313 178.206 120.02 175.263C120.061 176.457 120.093 177.598 120.12 178.583C120.164 180.18 120.209 181.746 120.267 183.211C120.664 193.116 121.338 200.818 123.333 206.206C123.443 206.503 123.59 206.954 123.745 207.434C124.741 210.483 126.405 215.589 130.64 219.588C135.024 223.73 140.328 225 145.186 225C147.622 225 149.947 224.68 151.986 224.243C159.253 222.684 167.507 220.31 173.478 211.802C179.123 203.759 181.867 191.645 182.364 172.557C182.428 172.017 182.487 171.502 182.544 171.011L182.663 170.002L183.992 170.119L184.335 170.142C191.737 170.48 200.788 168.909 206.346 166.325C210.739 164.285 224.814 156.849 221.5 146.809" fill="black"/>
<path d="M209.044 148.545C186.985 153.046 185.468 145.659 185.468 145.659C208.758 111.473 218.495 68.0793 210.093 57.4589C187.171 28.4884 147.492 42.1897 146.83 42.5448L146.617 42.583C142.259 41.6878 137.382 41.1552 131.9 41.0664C121.919 40.905 114.347 43.6549 108.602 47.9647C108.602 47.9647 37.8189 19.1197 41.1114 84.2422C41.8116 98.0961 61.1855 189.069 84.2933 161.591C92.7394 151.543 100.901 143.047 100.901 143.047C104.953 145.711 109.806 147.07 114.893 146.582L115.288 146.25C115.165 147.497 115.221 148.718 115.446 150.162C109.493 156.741 111.243 157.896 99.3423 160.32C87.3003 162.775 94.3742 167.145 98.9929 168.288C104.592 169.672 117.546 171.634 126.298 159.514L125.95 160.897C128.282 162.745 129.919 172.917 129.645 182.139C129.37 191.361 129.187 197.692 131.024 202.637C132.863 207.582 134.694 218.709 150.339 215.393C163.411 212.622 170.185 205.441 171.127 193.463C171.796 184.947 173.31 186.206 173.405 178.593L174.619 174.989C176.018 163.445 174.841 159.721 182.894 161.453L184.852 161.623C190.779 161.89 198.537 160.68 203.091 158.587C212.895 154.086 218.71 146.571 209.042 148.545H209.044" fill="#336791"/>
<path d="M112.405 90.2983C110.425 90.055 108.632 90.28 107.725 90.8865C107.216 91.2276 107.058 91.6228 107.015 91.8947C106.901 92.6154 107.473 93.4123 107.824 93.8231C108.819 94.9866 110.271 95.7861 111.708 95.9622C111.917 95.9883 112.124 96 112.33 96C114.728 96 116.907 94.352 117.099 93.1358C117.34 91.6124 114.835 90.597 112.405 90.2989M177.99 90.3465C177.801 89.1525 175.394 88.812 173.11 89.0925C170.829 89.3729 168.617 90.282 168.802 91.4787C168.95 92.4093 170.853 93.9979 173.106 93.9979C173.297 93.9979 173.489 93.9868 173.683 93.9627C175.187 93.7788 176.29 92.9356 176.815 92.4497C177.613 91.7089 178.075 90.8833 177.99 90.3465" fill="white"/>
<path d="M215.806 148.214C214.967 145.671 212.267 144.853 207.781 145.781C194.461 148.537 189.691 146.628 188.125 145.472C198.478 129.661 206.995 110.548 211.59 92.7155C213.767 84.2685 214.969 76.4237 215.067 70.0295C215.176 63.0115 213.983 57.8543 211.524 54.7039C201.61 42.0037 187.058 35.1912 169.444 35.0044C157.334 34.8679 147.103 37.9745 145.12 38.8482C140.943 37.8069 136.39 37.1677 131.432 37.0861C122.342 36.9385 114.484 39.1203 107.978 43.5678C105.152 42.5132 97.8492 39.9999 88.9177 38.5574C73.477 36.0656 61.2069 37.9538 52.4508 44.1722C42.0028 51.5929 37.1794 64.8574 38.1138 83.5966C38.4282 89.9011 42.0117 109.296 47.6666 127.87C55.1103 152.316 63.2021 166.156 71.7155 169.003C72.712 169.336 73.8609 169.569 75.1282 169.569C78.2338 169.569 82.0415 168.165 86.003 163.391C90.8349 157.58 95.8333 151.91 100.992 146.389C104.339 148.189 108.015 149.195 111.776 149.296C111.783 149.394 111.793 149.493 111.801 149.591C111.154 150.365 110.52 151.15 109.9 151.946C107.295 155.261 106.752 155.952 98.3655 157.683C95.9797 158.177 89.6435 159.486 89.5503 163.938C89.4497 168.803 97.0406 170.846 97.9054 171.063C100.919 171.819 103.823 172.192 106.592 172.192C113.326 172.192 119.253 169.973 123.989 165.68C123.843 183.024 124.564 200.114 126.642 205.32C128.343 209.583 132.499 220.001 145.627 220C147.554 220 149.674 219.775 152.007 219.274C165.708 216.33 171.658 210.259 173.96 196.875C175.191 189.722 177.305 172.642 178.299 163.48C180.397 164.136 183.098 164.437 186.018 164.436C192.108 164.436 199.135 163.139 203.542 161.088C208.493 158.783 217.426 153.128 215.806 148.214V148.214ZM183.177 86.3035C183.132 89.0082 182.761 91.4637 182.367 94.0267C181.943 96.7833 181.505 99.6333 181.395 103.093C181.287 106.46 181.706 109.96 182.111 113.346C182.931 120.184 183.772 127.223 180.516 134.169C179.976 133.208 179.494 132.215 179.074 131.196C178.669 130.212 177.79 128.633 176.573 126.446C171.839 117.936 160.754 98.0055 166.429 89.8729C168.119 87.4523 172.409 84.9634 183.177 86.3035V86.3035ZM170.125 40.4812C185.907 40.8305 198.392 46.7494 207.231 58.0724C214.01 66.7574 206.545 106.276 184.934 140.369C184.716 140.092 184.498 139.816 184.278 139.54L184.004 139.198C189.589 129.952 188.497 120.804 187.525 112.694C187.126 109.366 186.748 106.222 186.844 103.269C186.944 100.139 187.356 97.4545 187.756 94.8588C188.246 91.6602 188.746 88.3504 188.608 84.4487C188.711 84.0393 188.752 83.5558 188.698 82.9818C188.347 79.2403 184.086 68.0427 175.401 57.9077C170.65 52.3641 163.722 46.1605 154.262 41.9763C158.331 41.1309 163.895 40.3425 170.125 40.4812V40.4812ZM81.8106 159.896C77.4459 165.157 74.432 164.149 73.4407 163.818C66.9824 161.658 59.4884 147.974 52.8814 126.274C47.1643 107.498 43.8234 88.6173 43.5586 83.3229C42.7241 66.5787 46.773 54.9094 55.5934 48.6382C69.9482 38.4336 93.5488 44.5416 103.032 47.6393C102.896 47.7743 102.754 47.9003 102.619 48.0375C87.0572 63.7925 87.4263 90.7102 87.4648 92.3558C87.4633 92.9907 87.5166 93.8895 87.5891 95.1258C87.8569 99.6533 88.3555 108.08 87.0239 117.622C85.787 126.49 88.5138 135.169 94.5039 141.435C95.1186 142.076 95.7647 142.687 96.4399 143.265C93.7737 146.128 87.979 152.458 81.8106 159.896V159.896ZM98.4403 137.653C93.6124 132.603 91.4197 125.578 92.4236 118.378C93.8292 108.298 93.3106 99.5191 93.0317 94.8024C92.9925 94.1424 92.9577 93.5639 92.9377 93.1078C95.2111 91.0869 105.746 85.4284 113.26 87.1541C116.688 87.941 118.777 90.2815 119.645 94.307C124.14 115.149 120.24 123.835 117.106 130.816C116.461 132.254 115.85 133.613 115.33 135.02L114.926 136.107C113.903 138.855 112.952 141.411 112.362 143.837C107.23 143.823 102.237 141.624 98.4403 137.652V137.653ZM99.2281 165.76C97.7293 165.385 96.3814 164.733 95.5906 164.193C96.2512 163.881 97.4268 163.457 99.4656 163.036C109.332 161 110.856 159.563 114.184 155.327C114.946 154.356 115.811 153.255 117.009 151.914L117.01 151.913C118.794 149.911 119.61 150.25 121.089 150.866C122.289 151.363 123.457 152.87 123.93 154.528C124.154 155.311 124.406 156.797 123.583 157.954C116.632 167.711 106.502 167.585 99.2281 165.76V165.76ZM150.864 213.93C138.794 216.523 134.52 210.349 131.704 203.291C129.886 198.734 128.993 178.187 129.627 155.496C129.635 155.194 129.592 154.902 129.509 154.628C129.435 154.086 129.322 153.55 129.172 153.025C128.229 149.723 125.932 146.961 123.176 145.816C122.082 145.361 120.072 144.527 117.658 145.146C118.173 143.019 119.065 140.617 120.034 138.016L120.44 136.923C120.897 135.689 121.471 134.411 122.078 133.059C125.357 125.755 129.849 115.752 124.974 93.1523C123.148 84.6875 117.051 80.5537 107.808 81.5141C102.267 82.0889 97.1974 84.3301 94.6688 85.6153C94.1251 85.8912 93.628 86.1581 93.1634 86.4177C93.8691 77.8891 96.5353 61.9503 106.509 51.8658C112.789 45.5175 121.152 42.382 131.342 42.5511C151.42 42.8803 164.295 53.2096 171.561 61.8175C177.823 69.2344 181.213 76.7062 182.566 80.7362C172.391 79.6987 165.47 81.7121 161.962 86.7403C154.329 97.6777 166.137 118.906 171.812 129.108C172.853 130.978 173.751 132.594 174.034 133.28C175.882 137.77 178.274 140.768 180.021 142.956C180.556 143.626 181.076 144.276 181.471 144.845C178.389 145.735 172.853 147.793 173.357 158.08C172.951 163.242 170.057 187.408 168.587 195.946C166.647 207.226 162.506 211.428 150.864 213.931V213.93ZM201.247 156.131C198.095 157.597 192.821 158.697 187.811 158.934C182.278 159.193 179.461 158.312 178.798 157.77C178.487 151.36 180.867 150.69 183.386 149.981C183.782 149.87 184.168 149.761 184.541 149.63C184.772 149.819 185.026 150.007 185.304 150.191C189.752 153.134 197.685 153.451 208.884 151.133L209.007 151.109C207.496 152.525 204.912 154.425 201.247 156.131Z" fill="white"/>
</svg>

<svg width="256" height="256" viewBox="0 0 256 256" fill="none" xmlns="http://www.w3.org/2000/svg">
  <path d="M221.5 146.809c-1.136-3.443-4.112-5.841-7.96-6.416-1.815-.271-3.893-.156-6.352.351-4.286.885-7.467 1.222-9.787 1.288 8.76-14.801 15.883-31.68 19.983-47.568 6.631-25.69 3.088-37.395-1.053-42.688-10.958-14.013-26.945-21.54-46.232-21.77-10.289-.126-19.322 1.907-24.034 3.369-4.387-.775-9.104-1.208-14.053-1.288-9.278-.148-17.476 1.876-24.481 6.036-3.877-1.312-10.101-3.162-17.289-4.343-16.904-2.777-30.528-.613-40.494 6.433-12.067 8.53-17.661 23.35-16.627 44.05.329 6.573 4.002 26.569 9.787 45.533 3.324 10.9 6.869 19.952 10.536 26.906 5.2 9.861 10.765 15.668 17.011 17.754 3.502 1.167 9.863 1.985 16.554-3.592.848 1.028 1.98 2.049 3.481 2.998 1.907 1.204 4.24 2.187 6.568 2.77 8.393 2.099 16.255 1.574 22.962-1.369.041 1.194.073 2.335.1 3.32.044 1.597.089 3.163.147 4.628.397 9.905 1.071 17.607 3.066 22.995.11.297.257.748.412 1.228.996 3.049 2.66 8.155 6.895 12.154 4.384 4.142 9.688 5.412 14.546 5.412 2.436 0 4.761-.32 6.8-.757 7.267-1.559 15.521-3.933 21.492-12.441 5.645-8.043 8.389-20.157 8.886-39.245.064-.54.123-1.055.18-1.546l.119-1.009 1.329.117.343.023c7.402.338 16.453-1.233 22.011-3.817 4.393-2.04 18.468-9.476 15.154-19.516" fill="#000"/>
  <path d="M209.044 148.545c-22.059 4.501-23.576-2.886-23.576-2.886 23.29-34.186 33.027-77.58 24.625-88.2-22.922-28.97-62.601-15.27-63.263-14.914l-.213.038c-4.358-.895-9.235-1.428-14.717-1.517-9.981-.161-17.553 2.589-23.298 6.899 0 0-70.783-28.845-67.49 36.277.7 13.854 20.073 104.827 43.181 77.349 8.446-10.048 16.608-18.544 16.608-18.544 4.052 2.664 8.905 4.023 13.992 3.535l.395-.332c-.123 1.247-.067 2.468.158 3.912-5.953 6.579-4.203 7.734-16.104 10.158-12.042 2.455-4.968 6.825-.35 7.968 5.6 1.384 18.554 3.346 27.306-8.774l-.348 1.383c2.332 1.848 3.969 12.02 3.695 21.242-.275 9.222-.458 15.553 1.379 20.498 1.839 4.945 3.67 16.072 19.315 12.756 13.072-2.771 19.846-9.952 20.788-21.93.669-8.516 2.183-7.257 2.278-14.87l1.214-3.604c1.399-11.544.222-15.268 8.275-13.536l1.958.17c5.927.267 13.685-.943 18.239-3.036 9.804-4.501 15.619-12.016 5.951-10.042h.002" fill="#336791"/>
  <path d="M112.405 90.298c-1.98-.243-3.773-.018-4.68.588-.509.342-.667.737-.71 1.009-.114.72.458 1.517.809 1.928.995 1.164 2.447 1.963 3.884 2.14.209.025.416.037.622.037 2.398 0 4.577-1.648 4.769-2.864.241-1.524-2.264-2.539-4.694-2.837m65.585.047c-.189-1.194-2.596-1.534-4.88-1.254-2.281.28-4.493 1.19-4.308 2.387.148.93 2.051 2.519 4.304 2.519.191 0 .383-.011.577-.035 1.504-.184 2.607-1.027 3.132-1.513.798-.741 1.26-1.567 1.175-2.103" fill="#fff"/>
  <path d="M215.806 148.214c-.839-2.543-3.539-3.361-8.025-2.433-13.32 2.756-18.09.847-19.656-.309 10.353-15.811 18.87-34.924 23.465-52.757 2.177-8.447 3.379-16.291 3.477-22.686.109-7.017-1.084-12.175-3.543-15.325-9.914-12.7-24.466-19.513-42.08-19.7-12.11-.136-22.341 2.97-24.324 3.844-4.177-1.041-8.73-1.68-13.688-1.762-9.09-.148-16.948 2.034-23.454 6.482-2.826-1.055-10.129-3.568-19.06-5.01-15.441-2.492-27.711-.604-36.467 5.614-10.448 7.42-15.272 20.685-14.337 39.425.314 6.304 3.898 25.699 9.553 44.273 7.443 24.446 15.535 38.286 24.049 41.133.996.333 2.145.566 3.412.566 3.106 0 6.913-1.404 10.875-6.178a392.024 392.024 0 0 1 14.989-17.002c3.347 1.8 7.023 2.806 10.784 2.907.007.098.017.197.025.295a87.674 87.674 0 0 0-1.901 2.355c-2.605 3.315-3.148 4.006-11.535 5.737-2.385.494-8.721 1.803-8.815 6.255-.1 4.865 7.49 6.908 8.355 7.125 3.014.756 5.918 1.129 8.687 1.129 6.734 0 12.661-2.219 17.397-6.512-.146 17.344.575 34.434 2.653 39.64 1.701 4.263 5.857 14.681 18.985 14.68 1.927 0 4.047-.225 6.38-.726 13.701-2.944 19.651-9.015 21.953-22.399 1.231-7.153 3.345-24.233 4.339-33.395 2.098.656 4.799.957 7.719.956 6.09 0 13.117-1.297 17.524-3.348 4.951-2.305 13.884-7.96 12.264-12.874Zm-32.629-61.91c-.045 2.704-.416 5.16-.81 7.723-.424 2.756-.862 5.606-.972 9.066-.108 3.367.311 6.867.716 10.253.82 6.838 1.661 13.877-1.595 20.823a27.33 27.33 0 0 1-1.442-2.973c-.405-.984-1.284-2.563-2.501-4.75-4.734-8.51-15.819-28.44-10.144-36.573 1.69-2.42 5.98-4.91 16.748-3.57ZM170.125 40.48c15.782.35 28.267 6.268 37.106 17.591 6.779 8.685-.686 48.204-22.297 82.297a170.19 170.19 0 0 0-.656-.829l-.274-.342c5.585-9.246 4.493-18.394 3.521-26.504-.399-3.328-.777-6.472-.681-9.425.1-3.13.512-5.815.912-8.41.49-3.199.99-6.509.852-10.41.103-.41.144-.893.09-1.467-.351-3.742-4.612-14.94-13.297-25.074-4.751-5.544-11.679-11.748-21.139-15.932 4.069-.845 9.633-1.633 15.863-1.495ZM81.811 159.896c-4.365 5.261-7.379 4.253-8.37 3.922-6.459-2.16-13.953-15.844-20.56-37.544-5.717-18.776-9.058-37.657-9.322-42.951-.835-16.744 3.214-28.414 12.034-34.685 14.355-10.204 37.956-4.096 47.439-.999-.136.135-.278.261-.413.398C87.057 63.793 87.426 90.71 87.465 92.357c-.002.635.052 1.534.124 2.77.268 4.527.767 12.954-.565 22.496-1.237 8.868 1.49 17.547 7.48 23.813.615.641 1.26 1.252 1.936 1.83a401.397 401.397 0 0 0-14.63 16.631Zm16.63-22.243c-4.829-5.05-7.021-12.075-6.017-19.275 1.405-10.08.887-18.859.608-23.576-.04-.66-.074-1.238-.094-1.694 2.273-2.021 12.808-7.68 20.322-5.954 3.428.787 5.517 3.127 6.385 7.153 4.495 20.842.595 29.528-2.539 36.509-.645 1.438-1.256 2.797-1.776 4.204l-.404 1.087c-1.023 2.748-1.974 5.304-2.564 7.73-5.132-.014-10.125-2.213-13.922-6.185v.001Zm.787 28.107c-1.499-.375-2.847-1.027-3.637-1.567.66-.312 1.836-.736 3.875-1.157 9.866-2.036 11.39-3.473 14.718-7.709.762-.971 1.627-2.072 2.825-3.413l.001-.001c1.784-2.002 2.6-1.663 4.079-1.047 1.2.497 2.368 2.004 2.841 3.662.224.783.476 2.269-.347 3.426-6.951 9.757-17.081 9.631-24.355 7.806Zm51.636 48.17c-12.07 2.593-16.344-3.581-19.16-10.639-1.818-4.557-2.711-25.104-2.077-47.795a2.74 2.74 0 0 0-.118-.868 11.5 11.5 0 0 0-.337-1.603c-.943-3.302-3.24-6.064-5.996-7.209-1.094-.455-3.104-1.289-5.518-.67.515-2.127 1.407-4.529 2.376-7.13l.406-1.093c.457-1.234 1.031-2.512 1.638-3.864 3.279-7.304 7.771-17.307 2.896-39.907-1.826-8.465-7.923-12.598-17.166-11.638-5.541.575-10.61 2.816-13.14 4.101-.543.276-1.04.543-1.505.803.706-8.529 3.372-24.468 13.346-34.552 6.28-6.349 14.643-9.484 24.833-9.315 20.078.33 32.953 10.659 40.219 19.267 6.262 7.416 9.652 14.888 11.005 18.918-10.175-1.037-17.096.976-20.604 6.004-7.633 10.938 4.175 32.166 9.85 42.368 1.041 1.87 1.939 3.486 2.222 4.172 1.848 4.49 4.24 7.488 5.987 9.676.535.67 1.055 1.32 1.45 1.889-3.082.89-8.618 2.948-8.114 13.235-.406 5.162-3.3 29.328-4.77 37.866-1.94 11.28-6.081 15.482-17.723 17.985v-.001Zm50.383-57.799c-3.152 1.466-8.426 2.566-13.436 2.803-5.533.259-8.35-.622-9.013-1.164-.311-6.41 2.069-7.08 4.588-7.789.396-.111.782-.22 1.155-.351.231.189.485.377.763.561 4.448 2.943 12.381 3.26 23.58.942l.123-.024c-1.511 1.416-4.095 3.316-7.76 5.022Z" fill="#fff"/>
</svg>
